!!!!SEGMENT: pl-wtm--r-1461--033_stefani-jozef--wszechstronne-cwiczenia-glosowe-allegro-moderato.krn
!!!cenid: 18xx:2209
!!!COM: Stefani, Józef
!!!COM-rism: pe30024097
!!!CDT: 1800/04/16-1876/03/19
!!!CNT: Polish
!!!OTL: Wszechstronne ćwiczenia głosowe – Allegro moderato
!!!PDT:
!!!AGN: Secular
!!!SMS-siglum: PL-Wtm
!!!SMS-shelfmark: R 1461
!!!SMS-variant:
!!!SMS-altvar:
!!!NIFC-rismID: 1001120710
!!!OMD: Allegro moderato.
!!!system-decoration: s1{(s2,s3)}
**kern	**kern	**dynam	**kern	**dynam
*part2	*part2	*part2	*part1	*part1
*staff3	*staff2	*	*staff1	*
*	*I"Fortepian	*	*I"Soprano/Tenore	*
*	*I'pf	*	*I'S/T	*
*clefF4	*clefG2	*	*clefG2	*
*k[b-e-a-]	*k[b-e-a-]	*	*k[b-e-a-]	*
*M3/4	*M3/4	*	*M3/4	*
=1	=1	=1	=1	=1
*2\right	*2\right	*	*2\right	*
!!LO:TX:a:t=P:problem:all\right:global
4E- 4EE-/	8r	.	8r	.
!	!	!LO:DY:b:rj	!	!
.	8g 8e- 8B-/	f	(<8g/	<
*	*tremolo	*	*	*
!	!	!LO:DY:b:rj	!	!
4r	8gL 8e- 8B-/	p	2b-/)	[[
.	8g 8e- 8B-/	.	.	.
4r	8g 8e- 8B-/	.	.	.
.	8gJ 8e- 8B-/	.	.	.
*	*Xtremolo	*	*	*
=2	=2	=2	=2	=2
4D 4DD/	8r	.	8r	.
!	!	!LO:DY:b:rj	!	!
.	8b- 8f 8B-/	f	(>8b-\	<
*	*tremolo	*	*	*
!	!	!LO:DY:b:rj	!	!
4r	8b-L 8f 8B-/	p	4ff\)	.
.	8b- 8f 8B-/	.	.	.
4r	8b- 8f 8B-/	.	4b-\	[
.	8b-J 8f 8B-/	.	.	.
*	*Xtremolo	*	*	*
=3	=3	=3	=3	=3
!	!	!LO:DY:b:rj	!	!
8E- 8EE-/	8r	f	(>4.gg\	.
8r	8g 8e- 8B-/	.	.	.
8E- 8EE-/	8r	.	.	.
8r	8g 8e- 8B-/	.	16ff\LL	.
.	.	.	16ee-\JJ	.
8E- 8EE-/	8r	.	8dd\L	.
8r	8g 8e- 8B-/	.	8ee-\J)	.
=4	=4	=4	=4	=4
4BB- 4BBB-/	8r	.	(>16een\LL	>
.	.	.	16ff\	.
.	8f 8d 8B-/	>	16gg\	]
.	.	.	16ff\JJ)	.
*	*tremolo	*	*	*
4r	8fL 8d 8B-/	.	2b-\	.
.	8f 8d 8B-/	.	.	.
4r	8f 8d 8B-/	.	.	.
.	8fJ 8d 8B-/	]	.	.
*	*Xtremolo	*	*	*
!!LO:LB:g=original
=5	=5	=5	=5	=5
4E- 4EE-/	8r	.	8r	.
.	8g 8e- 8B-/	.	(<8g/	<
*	*tremolo	*	*	*
4r	8gL 8e- 8B-/	.	2b-/)	[[
.	8g 8e- 8B-/	.	.	.
4r	8g 8e- 8B-/	.	.	.
.	8gJ 8e- 8B-/	.	.	.
*	*Xtremolo	*	*	*
=6	=6	=6	=6	=6
4D 4DD/	8r	.	8r	.
.	8b- 8f 8B-/	.	(>8b-\	<
*	*tremolo	*	*	*
4r	8b-L 8f 8B-/	.	4ff\)	.
.	8b- 8f 8B-/	.	.	.
4r	8b- 8f 8B-/	.	4b-\	[
.	8b-J 8f 8B-/	.	.	.
*	*Xtremolo	*	*	*
=7	=7	=7	=7	=7
8D 8DD/	8r	.	8r	.
8r	8g#X 8en 8Bn/	.	8bn\	.
8D 8DD/	8r	.	(>8een\L	.
8r	8g# 8e 8B/	.	16ff#X\L	.
.	.	.	16ee\JJ	.
8D 8DD/	8r	.	8dd#X\L	.
8r	8g# 8e 8B/	.	8ee\J)	.
=8	=8	=8	=8	=8
4C#X 4CC#X/	8r	.	(>16dd#X\LL	>
.	.	.	16een\	.
.	8an 8en 8An/	.	16ff#X\	]
.	.	.	16ee\JJ	.
*	*tremolo	*	*	*
4r	8aL 8e 8A/	.	2an/)	.
.	8a 8e 8A/	.	.	.
4r	8a 8e 8A/	.	.	.
.	8aJ 8e 8A/	.	.	.
*	*Xtremolo	*	*	*
=9	=9	=9	=9	=9
4Cn 4CCn/	8r	.	8r	.
.	8f#X 8d 8An/	.	8an\L	.
*	*tremolo	*	*	*
4r	8f#L 8d 8A/	.	8dd\J	.
.	8f# 8d 8A/	.	4a^</	.
4r	8f# 8d 8A/	.	.	.
!	!	!	!LO:TX:a:Bi:t=vi+	!
.	8f#J 8d 8A/	.	[>8dd\	.
*	*Xtremolo	*	*	*
!!LO:PB:g=original
=10	=10	=10	=10	=10
!	!	!	!LO:TX:t=P:problem:w źródle zapis poprawiany przez skryptora [wykreślone 9 taktów]	!
!	!	!	!LO:TX:a:Bi:t=de+:rj	!
4BBn 4BBBn/	8r	.	8dd\]	.
.	8g 8d 8G</	.	8g/	.
*	*tremolo	*	*	*
!	!	!	!LO:N:vis=4	!
4rGG	8gL 8d 8G</	.	8dd^<\	.
.	8g 8d 8G</	.	4g^</	.
4rGG	8g 8d 8G</	.	.	.
.	8gJ 8d 8G</	.	8dd\	.
*	*Xtremolo	*	*	*
=11	=11	=11	=11	=11
!LO:TX:a:t=P:w źródle kasowniki dopisane ołówkiem [uwzględnione w kodzie]:problem	!	!	!	!
8BBn 8BBBn/	8r	.	8r	.
8rGG	8g 8d 8G</	.	(>8g/	<
8BB 8BBB/	8r	.	4dd\	[
8rGG	8g 8d 8G</	.	.	.
8BB 8BBB/	8r	.	4dd#X^<\)	.
8rGG	8g 8d#X 8G</	.	.	.
=12	=12	=12	=12	=12
4C 4CC/	8r	.	(>4.ff#X\	>
.	8an 8en 8c/	.	.	.
*	*tremolo	*	*	*
4r	8aL 8e 8c/	.	.	.
.	8a 8e 8c/	.	8een\	.
4r	8a 8e 8c/	.	16dd\LL	.
.	.	.	16cc\	.
.	8aJ 8e 8c/	.	16bn\	]
.	.	.	16an\JJ)	.
*	*Xtremolo	*	*	*
=13	=13	=13	=13	=13
8D 8DD/	8r	.	(>&(<16g/LL	.
.	.	.	16d/	.
8r	8g 8d 8Bn/	.	16c#X/	.
.	.	.	16d/JJ	.
8D 8DD/	8r	.	16en/LL	.
.	.	.	16d/JJ&)	.
8r	8g 8d 8B/	.	4bn/	>
8D 8DD/	8r	.	.	.
8r	8f#X 8d 8c/	.	8an/	]]
!!LO:LB:g=original
=14	=14	=14	=14	=14
4En 4EEn/	8r	.	2g/	.
.	8gL 8Bn/	.	.	.
4r	8g 8B/	.	.	.
.	8gJ 8B/	.	.	.
4C 4CC/	8r	.	4an/)	.
.	8an 8en 8c/	.	.	.
=15	=15	=15	=15	=15
4D 4DD/	8r	.	(>4.bn\	<
.	8gL 8d 8Bn/	.	.	.
4r	8g 8d 8B/	.	.	.
.	8gJ 8d 8B/	.	16an/LL	.
.	.	.	16b/JJ)	.
.	.	.	(<8qdd/	.
4D 4DD/	8r	.	8cc/L)	[ >
.	8f#X 8d 8c 8An/	.	8a/J	]]
=16	=16	=16	=16	=16
!	!LO:TX:a:t=P:w źródle forte dopisane ołówkiem [uwzględnione w kodzie]:problem	!	!	!
!	!	!LO:DY:b:rj	!	!
8GL 8GG\	8gL 8d 8Bn/	f	4g/	.
8GJ 8GG\	8gJ 8d 8B/	.	.	.
4Fn 4FFn/	4a-X 4f 4c/	.	4r	.
!	!LO:TX:b:Bi:t=V&colon;S&colon;	!	!	!
4BB-X 4BBB-X/	4b-X 4f 4d/	.	4r	.
!!LO:PB:g=original
=17	=17	=17	=17	=17
4E- 4EE-/	8r	.	8r	.
!	!LO:TX:a:t=P:w źródle forte piano dopisane ołówkiem [uwzględnione w kodzie]:problem	!	!	!
!	!	!LO:DY:b:rj	!	!
.	8g 8e- 8B-/	fp	(<8g/	<
*	*tremolo	*	*	*
4r	8gL 8e- 8B-/	.	2b-/)	[[
.	8g 8e- 8B-/	.	.	.
4r	8g 8e- 8B-/	.	.	.
.	8gJ 8e- 8B-/	.	.	.
*	*Xtremolo	*	*	*
=18	=18	=18	=18	=18
4D 4DD/	8r	.	8r	.
.	8b- 8f 8B-/	.	(>8b-\	<
*	*tremolo	*	*	*
4r	8b-L 8f 8B-/	.	4.ff\)	.
.	8b- 8f 8B-/	.	.	.
4r	8b- 8f 8B-/	.	.	.
.	8b-J 8f 8B-/	.	8b-\	[
*	*Xtremolo	*	*	*
=19	=19	=19	=19	=19
8E- 8EE-/	8r	.	(>4.gg\	>
8r	8g 8e- 8B-/	.	.	.
*rep	*rep	*	*	*
8E- 8EE-/	8r	.	.	.
8r	8g 8e- 8B-/	.	16ff\LL	.
.	.	.	16ee-\JJ	.
*Xrep	*Xrep	*	*	*
*rep	*rep	*	*	*
8E- 8EE-/	8r	.	8dd\L	.
8r	8g 8e- 8B-/	.	8ee-\J)	]
*Xrep	*Xrep	*	*	*
=20	=20	=20	=20	=20
4BB- 4BBB-/	8r	.	(>16een\LL	>
.	.	.	16ff\	.
*	*tremolo	*	*	*
.	8f 8d 8B-/	.	16gg\	]
.	.	.	16ff\JJ	.
4r	8fL 8d 8B-/	.	2b-\)	.
.	8f 8d 8B-/	.	.	.
4r	8f 8d 8B-/	.	.	.
.	8fJ 8d 8B-/	.	.	.
*	*Xtremolo	*	*	*
!!LO:LB:g=original
=21	=21	=21	=21	=21
!	!	!LO:DY:b:rj	!	!
8E- 8EE-/	8r	p	8r	.
8r	8g 8e- 8B-/	.	(>8b-\	.
8E- 8EE-/	8r	.	4ee-\	.
8r	8g 8e- 8B-/	.	.	.
!	!	!LO:DY:b=2	!	!
4D-X 4DD-X/	8r	sf	4g/)	.
!	!	!LO:DY:b:rj	!	!
.	8g 8e- 8B-/	sf	.	.
=22	=22	=22	=22	=22
*	*^	*	*	*
(<16C/LL	16a-/LL	4e-\	.	(<16a-/LL	.
16D-X/	(<16g/	.	.	16g/	.
16C/	16a-/	.	.	16a-/	.
16GG/JJ)	16b-/JJ)	.	.	16b-/JJ	.
4AA-/	4cc/	4e-\	.	4cc\)	.
4AAn 4AAAn/	4cc 4g-X 4e-^</	4ryy	.	(>4cc\	.
*	*v	*v	*	*	*
=23	=23	=23	=23	=23
8BB- 8BBB-/	8b-L 8gn 8e-/	f	4.b-\)	.
8r	8b-J 8g 8e-/	.	.	.
8BB- 8BBB-/	8r	.	.	.
8r	8b- 8g 8e-/	.	(>16ee-\LL	.
.	.	.	16dd\JJ	.
8BB- 8BBB-/	8r	.	16cc/LL	.
.	.	.	16b-/	.
8r	8g 8e- 8B-/	.	16a-/	.
!	!	!	!LO:TX:a:t=P:w źródle łuk kończy się na kresce taktowej:problem	!
.	.	.	16g/JJ)	.
=24	=24	=24	=24	=24
.	.	.	(<8qg/	.
4BB- 4BBB-/	8r	.	(<2.fTT>/)	.
.	8fL 8e- 8B-/	.	.	.
4r	8f 8e- 8B-/	.	.	.
.	8fJ 8e- 8B-/	.	.	.
4BB- 4BBB-/	8r	.	.	.
.	8f 8d 8B- 8A-/	.	.	.
.	.	.	16qqe-/LL	.
.	.	.	16qqf/JJ)	.
!!LO:LB:g=original
=25	=25	=25	=25	=25
4E- 4EE-\	4e- 4B-/	.	4e-/	.
8r	8r	.	4r	.
!	!	!LO:DY:b:rj	!	!
(>8G\L	(<8b-L 8e-/	p	.	.
8F\	8a- 8d/	.	4r	.
8E-\J)	8gJ 8e-/)	.	.	.
=26	=26	=26	=26	=26
8BB- 8BBB-/	8fL 8d/	.	(<4.f/	.
8r	8fJ 8d 8B-/	.	.	.
8BB- 8BBB-/	8r	.	.	.
8r	8f 8d 8B-/	.	16a-/LL	<
.	.	.	16g/JJ	.
8BB- 8BBB-/	8r	.	16b-/LL	.
.	.	.	16a-/	.
8r	8f 8d 8B-/	.	16cc/	.
.	.	.	16b-/JJ)	[[
=27	=27	=27	=27	=27
4E- 4EE-/	8r	.	(<16b-/LL	>
.	.	.	16a-/	.
.	8gL 8e- 8B-/	.	16g/	.
.	.	.	16f/JJ	.
8r	8gJ 8e- 8B-/	.	4e-/)	]
(>8G\L	(<8b-L 8e-/	.	.	.
8F\	8a- 8d/	.	4r	.
8E-\J	8gJ 8e-/)	.	.	.
=28	=28	=28	=28	=28
8BB- 8BBB-/)	8fL 8d/	.	(<4.f/	.
8r	8fJ 8d 8B-/	.	.	.
8BB- 8BBB-/	8r	.	.	.
8r	8f 8d 8B-/	.	16a-/LL	<
.	.	.	16g/JJ	.
8BB- 8BBB-/	8r	.	16b-/LL	.
.	.	.	16a-/	.
8r	8f 8d 8B-/	.	16cc/	.
.	.	.	16b-/JJ)	[[
!!LO:LB:g=original
=29	=29	=29	=29	=29
4E- 4EE-/	8r	.	(>16b-\LL	.
.	.	.	16ee-\	.
.	8g 8e- 8B-/	.	16dd\	.
.	.	.	16ee-\JJ)	.
4r	4g 4e- 4B-/	.	4b-\	.
4D 4DD\	4f 4Bn 4G</	.	(<4bnt>\	<
.	.	.	16qqa-/LL	.
.	.	.	16qqb/JJ)	.
=30	=30	=30	=30	=30
4C 4CC\	8r	.	(>16cc\LL	.
.	.	.	16ee-\	.
.	8e- 8c 8G</	.	16dd\	.
.	.	.	16ee-\JJ)	.
4rGG	4e- 4c 4G</	.	4cc\	.
4C-X 4CC-X/	4an 4e-/	.	(<4ant>/	.
.	.	.	16qqg/LL	.
.	.	.	16qqa/JJ)	.
=31	=31	=31	=31	=31
*	*^	*	*	*
4BB- 4BBB-/	8r	2ryy	.	2b-\	.
.	8b- 8d/	.	.	.	.
4r	4b- 4d/	.	.	.	.
4E- 4EE-/	8g/L	4e-\	.	(<8g/L	.
.	8cc/J	.	.	8cc/J)	.
*	*v	*v	*	*	*
=32	=32	=32	=32	=32
!	!	!	!	!LO:DY:a:rj
8F 8FF\	8r	f	(>&(<16b-/LL	f
.	.	.	16f/	.
8r	8b- 8f 8d/	.	16en/	.
.	.	.	16f/JJ	.
8F 8FF\	8r	.	16g/LL	.
.	.	.	16f/JJ&)	.
8r	8b- 8f 8d/	.	4dd\	<
4F 4FF\	8r	.	.	[ >
.	8an 8f 8e-/	.	8cc\	]
!!LO:PB:g=original
=33	=33	=33	=33	=33
8BB-'>\L	4b- 4f 4d/	.	4b-\)	.
(>16D\L	.	.	.	.
16F\JJ	.	.	.	.
[>4B-\)	8r	.	4r	.
.	8a-L 8f/	.	.	.
4B-] 4BB-\	8g 8e-/	.	4r	.
.	8fJ 8d/	.	.	.
=34	=34	=34	=34	=34
4E- 4EE-/	8r	p	8r	.
.	8g 8e- 8B-/	.	(<8g/	<
*	*tremolo	*	*	*
4r	8gL 8e- 8B-/	.	2b-/)	[[
.	8g 8e- 8B-/	.	.	.
4r	8g 8e- 8B-/	.	.	.
.	8gJ 8e- 8B-/	.	.	.
*	*Xtremolo	*	*	*
=35	=35	=35	=35	=35
4D 4DD/	8r	.	8r	.
.	8b- 8f 8B-/	.	(>8b-\	<
*	*tremolo	*	*	*
4r	8b-L 8f 8B-/	.	4.ff\)	[[
.	8b- 8f 8B-/	.	.	.
4r	8b- 8f 8B-/	.	.	.
.	8b-J 8f 8B-/	.	(>8b-\	.
*	*Xtremolo	*	*	*
=36	=36	=36	=36	=36
!	!	!LO:DY:b:rj	!	!
8E- 8EE-/	8r	f	4.gg\	<
8r	8g 8e- 8B-/	.	.	.
8E- 8EE-/	8r	.	.	.
8r	8g 8e- 8B-/	.	16aa-\LL	.
.	.	.	16gg\JJ	[ >
8E- 8EE-/	8r	.	16ff\LL	.
.	.	.	16ee-\	.
8r	8g 8e- 8B-/	.	16dd\	]
.	.	.	16ee-\JJ)	.
!!LO:LB:g=original
=37	=37	=37	=37	=37
4BB- 4BBB-/	8r	.	(>16een\LL	>
.	.	.	16ff\	.
.	8f 8d 8B-/	.	16gg\	.
.	.	.	16ff\JJ)	]
*	*tremolo	*	*	*
4r	8fL 8d 8B-/	.	2b-\	.
.	8f 8d 8B-/	.	.	.
4r	8f 8d 8B-/	.	.	.
.	8fJ 8d 8B-/	.	.	.
*	*Xtremolo	*	*	*
=38	=38	=38	=38	=38
4E- 4EE-/	8r	.	8r	.
.	8gL 8e- 8B-/	.	(>8b-\	.
4r	8g 8e- 8B-/	.	4ee-\)	.
.	8gJ 8e- 8B-/	.	.	.
!	!	!LO:DY:b=2	!	!
4D-X 4DD-X/	8r	sf	4g/	.
!	!	!LO:DY:a	!	!
.	8g 8e- 8B-/	sf	.	.
=39	=39	=39	=39	=39
!	!	!	!LO:TX:a:t=P:w źródle łuk zaczyna swój bieg od dołu:problem	!
8C 8CC/	8r	.	(>16a-/LL	.
.	.	.	16g/	.
8r	8a- 8e- 8A-/	.	16a-/	.
.	.	.	16b-/JJ	<
!	!	!	!LO:TX:a:t=P:w źródle łuk obraca się:problem	!
8AA- 8AAA-/	8r	<	16cc\LL	.
.	.	.	16b-\	.
8r	8f 8e- 8c/	.	16cc\	.
.	.	.	16dd\JJ	.
4AAn 4AAAn/	8r	.	16ee-\LL	.
.	.	.	16dd\	.
.	8g-X 8e- 8c/	[	16ee-\	.
.	.	.	16cc\JJ)	[[
=40	=40	=40	=40	=40
8BB- 8BBB-/	8r	f	8b-\	.
8r	8gn 8e- 8B-/	.	(>4bb-^<|>\	.
8BB- 8BBB-/	8r	.	.	.
8r	8g 8e- 8B-/	.	8gg\	.
8BB- 8BBB-/	8r	.	8ee-\L	.
8r	8g 8e- 8B-/	.	8cc\J	.
!!LO:LB:g=original
=41	=41	=41	=41	=41
4BB- 4BBB-/	8r	.	(>4.b-\)	.
.	8a-L 8f 8d 8B-/	.	.	.
4r	8a- 8f 8d 8B-/	.	.	.
.	8a-J 8f 8d 8B-/	.	16dd\LL	.
.	.	.	16cc\JJ	.
4BB- 4BBB-/	8r	.	16b-/LL	.
.	.	.	16a-/	.
.	8a- 8f 8d 8B-/	.	16g/	.
.	.	.	16f/JJ	.
=42	=42	=42	=42	=42
!	!	!LO:DY:b:rj	!	!
4E- 4EE-/	8r	p	8e-/)	.
!	!	!	!	!LO:DY:b:rj
.	8g 8e- 8B-/	.	(>8e-/	p
*	*tremolo	*	*	*
4r	8gL 8e- 8d-X 8B-/	.	2dd-X\)	.
.	8g 8e- 8d- 8B-/	.	.	.
4r	8g 8e- 8d- 8B-/	.	.	.
.	8gJ 8e- 8d- 8B-/	.	.	.
*	*Xtremolo	*	*	*
=43	=43	=43	=43	=43
4E- 4EE-/	8r	.	8r	.
.	8a- 8e- 8c/	.	(>8e-/	.
*	*tremolo	*	*	*
4r	8a-L 8e- 8c/	.	2cc\)	.
.	8a- 8e- 8c/	.	.	.
4r	8a- 8e- 8c/	.	.	.
.	8a-J 8e- 8c/	.	.	.
*	*Xtremolo	*	*	*
=44	=44	=44	=44	=44
4E- 4EE-/	8r	.	(>4.cc-X\	<
.	8a- 8e- 8c-X/	.	.	.
*	*tremolo	*	*	*
4r	8a-L 8e- 8c-/	.	.	.
.	8a- 8e- 8c-/	.	16dd-X\LL	.
.	.	.	16cc-\JJ	[ >
4r	8a- 8e- 8c-/	.	8b-/L	.
.	8a-J 8e- 8c-/	.	8a-/J	]]
*	*Xtremolo	*	*	*
!!LO:LB:g=original
=45	=45	=45	=45	=45
4E- 4EE-/	8r	.	16g\LL	.
.	.	.	16b-\	.
.	8g 8e- 8B-/	.	16dd\	.
.	.	.	16ee-\JJ)	.
*	*tremolo	*	*	*
4r	8gL 8e- 8B-/	.	2e-/	.
.	8g 8e- 8B-/	.	.	.
4r	8g 8e- 8B-/	.	.	.
.	8gJ 8e- 8B-/	.	.	.
*	*Xtremolo	*	*	*
=46	=46	=46	=46	=46
4E- 4EE-/	8r	.	8r	.
.	8g 8e- 8d-X 8B-/	.	(>8e-/	.
*	*tremolo	*	*	*
4r	8gL 8e- 8d- 8B-/	.	2dd-X\)	.
.	8g 8e- 8d- 8B-/	.	.	.
4r	8g 8e- 8d- 8B-/	.	.	.
.	8gJ 8e- 8d- 8B-/	.	.	.
*	*Xtremolo	*	*	*
=47	=47	=47	=47	=47
4E- 4EE-/	8r	.	8r	.
.	8a- 8e- 8c/	.	(>8e-/	.
*	*tremolo	*	*	*
4r	8a-L 8e- 8c/	.	2cc\)	.
.	8a- 8e- 8c/	.	.	.
4r	8a- 8e- 8c/	.	.	.
.	8a-J 8e- 8c/	.	.	.
*	*Xtremolo	*	*	*
=48	=48	=48	=48	=48
4E- 4EE-/	8r	.	(>4.cc-X\	<
.	8a- 8e- 8c-X/	.	.	.
*	*tremolo	*	*	*
4r	8a-L 8e- 8c-/	.	.	.
.	8a- 8e- 8c-/	.	16dd-X\LL	.
.	.	.	16cc-\JJ	[ >
4r	8a- 8e- 8c-/	.	8b-/L	.
!	!	!	!LO:TX:a:t=P:w źródle łuk kończy się na kresce taktowej:problem	!
.	8a-J 8e- 8c-/	.	8a-/J)	]]
*	*Xtremolo	*	*	*
!!LO:PB:g=original
=49	=49	=49	=49	=49
*	*	*	*	*^
2E- 2EE-/	2g 2e- 2B-/	.	(<4.g/	<	>
.	.	.	8b-/L	.	.
4E- 4EE-/	4a- 4e- 4c-X/	.	8cc-X/	[ >	.
.	.	.	8a-/J)	]]	.
*	*	*	*	*v	*v
=50	=50	=50	=50	=50
2E- 2EE-/	2g 2e- 2B-/	.	4.g/	<
!	!	!	!LO:TX:b:Bi:t=rall.	!
.	.	.	8b-\L	.
.	.	.	(<8qdd-X/	[ >
4E- 4EE-/	4a- 4e- 4c-X/	.	8cc-X\)	.
.	.	.	8a-\J	]
=51	=51	=51	=51	=51
!	!	!	!LO:TX:b:Bi:t=a tempo	!
!	!	!	!	!LO:DY:a:rj
[>2.E- [<2.EE-/	[>2.g [>2.e- [<2.B-/	.	(>4.ee-T>\	f
.	.	.	16dd\LL	.
.	.	.	16ee-\JJ	.
.	.	.	16gg\LL	.
.	.	.	16ee-\	.
.	.	.	16b-\	.
.	.	.	16g\JJ)	.
!!LO:LB:g=original
=52	=52	=52	=52	=52
8.E-]L 8.EE-\]	8.g]L 8.e-] 8.B-/]	.	4e-/	.
!	!	!LO:DY:b:rj	!	!
16E-Jk 16EE-\	16e-Jk 16B- 16G</	f	.	.
4BB- 4BBB-/	4g 4e- 4B-/	.	4r	.
4G 4GG/	4b- 4g 4e-/	.	4r	.
=53	=53	=53	=53	=53
4E- 4EE-/	4ee- 4b- 4g 4e-/	.	2.r	.
4r	4r	.	.	.
4r	4r	.	.	.
==	==	==	==	==
*-	*-	*-	*-	*-
!!title: @{OTL};
!!!RDF**kern: > = above
!!!RDF**kern: < = below
!!!RDF**dynam: > = "dim", fontstyle= "bold-italic"
!!!RDF**dynam: < = "crescendo", fontstyle= "bold-italic"
!!!RDF**kern: | = vertical stroke
!!!RDF**kern: N = linked
!!!RDF**kern: i = editorial accidental
!!!EED: Wojciech Jakubiak-Danek
!!!EST: 2021-06-04
!!!URL-scan: http://repozytorium.nifc.pl/skany/pl-wtm-nut--r1461
!!!ONB-nifc: UWAGA: skan 0030, s. 56 – 0032, s. 60
!!!ENC: Andrzej Gręziak
!!!END: 2021-05-20
